public/flags/RW.svg

<svg fill="none" height="53" viewBox="0 0 61 53" width="61" xmlns="http://www.w3.org/2000/svg" xmlns:xlink="http://www.w3.org/1999/xlink"><filter id="a" color-interpolation-filters="sRGB" filterUnits="userSpaceOnUse" height="11.3333" width="59" x="1" y="34.1666"><feFlood flood-opacity="0" result="BackgroundImageFix"/><feColorMatrix in="SourceAlpha" type="matrix" values="0 0 0 0 0 0 0 0 0 0 0 0 0 0 0 0 0 0 127 0"/><feOffset/><feColorMatrix type="matrix" values="0 0 0 0 0 0 0 0 0 0 0 0 0 0 0 0 0 0 0.06 0"/><feBlend in2="BackgroundImageFix" mode="normal" result="effect1_dropShadow"/><feBlend in="SourceGraphic" in2="effect1_dropShadow" mode="normal" result="shape"/></filter><mask id="b" height="43" maskUnits="userSpaceOnUse" width="59" x="1" y="3"><rect fill="#fff" height="42.5" rx="4.24286" width="59" x="1" y="3"/></mask><rect fill="#fff" height="42.5" rx="4.24286" width="59" x="1" y="3"/><g mask="url(#b)"><g filter="url(#a)"><path clip-rule="evenodd" d="m1 45.5h59v-11.3334h-59z" fill="#2d754d" fill-rule="evenodd"/></g><g clip-rule="evenodd" fill-rule="evenodd"><path d="m1 22.8333h59v-19.8333h-59z" fill="#25b1eb"/><path d="m1 34.1667h59v-11.3333h-59z" fill="#fecb2f"/><path d="m45.9523 15.75-2.1503 2.402.1637-3.2319-3.2047.1651 2.3818-2.1685-2.3818-2.1686 3.2047.1651-.1637-3.23185 2.1503 2.40195 2.1503-2.40195-.1637 3.23185 3.2047-.1651-2.3818 2.1686 2.3818 2.1685-3.2047-.1651.1637 3.2319z" fill="#fecb2f"/></g></g></svg>

<svg width="61" height="53" viewBox="0 0 61 53" fill="none" xmlns="http://www.w3.org/2000/svg">
<rect x="1" y="3" width="59" height="42.5" rx="4.24286" fill="white"/>
<mask id="mask0" mask-type="alpha" maskUnits="userSpaceOnUse" x="1" y="3" width="59" height="43">
<rect x="1" y="3" width="59" height="42.5" rx="4.24286" fill="white"/>
</mask>
<g mask="url(#mask0)">
<g filter="url(#filter0_d)">
<path fill-rule="evenodd" clip-rule="evenodd" d="M1 45.5H60V34.1666H1V45.5Z" fill="#2D754D"/>
</g>
<path fill-rule="evenodd" clip-rule="evenodd" d="M1 22.8333H60V3H1V22.8333Z" fill="#25B1EB"/>
<path fill-rule="evenodd" clip-rule="evenodd" d="M1 34.1667H60V22.8334H1V34.1667Z" fill="#FECB2F"/>
<path fill-rule="evenodd" clip-rule="evenodd" d="M45.9523 15.75L43.802 18.152L43.9657 14.9201L40.761 15.0852L43.1428 12.9167L40.761 10.7481L43.9657 10.9132L43.802 7.68135L45.9523 10.0833L48.1026 7.68135L47.9389 10.9132L51.1436 10.7481L48.7618 12.9167L51.1436 15.0852L47.9389 14.9201L48.1026 18.152L45.9523 15.75Z" fill="#FECB2F"/>
</g>
<defs>
<filter id="filter0_d" x="1" y="34.1666" width="59" height="11.3333" filterUnits="userSpaceOnUse" color-interpolation-filters="sRGB">
<feFlood flood-opacity="0" result="BackgroundImageFix"/>
<feColorMatrix in="SourceAlpha" type="matrix" values="0 0 0 0 0 0 0 0 0 0 0 0 0 0 0 0 0 0 127 0"/>
<feOffset/>
<feColorMatrix type="matrix" values="0 0 0 0 0 0 0 0 0 0 0 0 0 0 0 0 0 0 0.06 0"/>
<feBlend mode="normal" in2="BackgroundImageFix" result="effect1_dropShadow"/>
<feBlend mode="normal" in="SourceGraphic" in2="effect1_dropShadow" result="shape"/>
</filter>
</defs>
</svg>
